X: 1
T: Malh\~ao
O: Portugal
F: http://www.youtube.com/watch?v=p3wPho12Cgc
F: http://www.youtube.com/watch?v=fTr3RqspAVE
F: http://ifdo.ca/~seymour/runabc/intl.abc
M: 4/4
L:1/16
Q: 1/4=80
K: G
GGBB dddG GGBB dddG|\
FFAA dddG  FFAA dddG|
GGBB dddG  GGBB dddG|\
fede cdBc  ABG2- G4|
M:2/4
L:1/8
|:\
zG/G/ GF/E/|\
DD-D2|z F FE/D/|\
GG-G2:|
|:z D/2D/2 DE | DF/2F/2 FE| DD/2C/2 B,A, | G,G, G,2 :|
